X:2905
T:Chateauguay Reel
C:Jim Magill
R:reel
M:4/4
L:1/8
K:G
ga|b2bg a2af|gbge d2g2|fdAB cBce|dBGA B2ga|
b2bg a2af|gbge d2g2|fdAB cdef|gagf g2:|
|:z2|G2GB d2g2|efge d2g2|fdAB cBce|dBGA B2BA|
G2GB d2g2|efge d2g2|fdAB cdef|gagf g2:|


